src/svg/28/view_outline_28.svg

<svg height="28" viewBox="0 0 28 28" width="28" xmlns="http://www.w3.org/2000/svg"><g fill="none" fill-rule="evenodd" transform=""><path d="m0 0h28v28h-28z"/><path d="m14 6c5.9940589 0 11.5 4.5566409 11.5 8s-5.5059411 8-11.5 8c-5.99405891 0-11.5-4.5566409-11.5-8s5.50594109-8 11.5-8zm0 2c-4.96427442 0-9.5 3.7537039-9.5 6s4.53572558 6 9.5 6c4.9642744 0 9.5-3.7537039 9.5-6s-4.5357256-6-9.5-6zm0 2c2.209139 0 4 1.790861 4 4s-1.790861 4-4 4-4-1.790861-4-4 1.790861-4 4-4zm0 2c-1.1045695 0-2 .8954305-2 2s.8954305 2 2 2 2-.8954305 2-2-.8954305-2-2-2z" fill="currentColor" fill-rule="nonzero"/></g></svg>

<?xml version="1.0" encoding="UTF-8"?>
<svg width="28px" height="28px" viewBox="0 0 28 28" version="1.1" xmlns="http://www.w3.org/2000/svg" xmlns:xlink="http://www.w3.org/1999/xlink">
    <!-- Generator: Sketch 63.1 (92452) - https://sketch.com -->
    <title>view_outline_28</title>
    <desc>Created with Sketch.</desc>
    <g id="Page-1" stroke="none" stroke-width="1" fill="none" fill-rule="evenodd">
        <g id="view_outline_28">
            <rect x="0" y="0" width="28" height="28"></rect>
            <path d="M14,6 C19.9940589,6 25.5,10.5566409 25.5,14 C25.5,17.4433591 19.9940589,22 14,22 C8.00594109,22 2.5,17.4433591 2.5,14 C2.5,10.5566409 8.00594109,6 14,6 Z M14,8 C9.03572558,8 4.5,11.7537039 4.5,14 C4.5,16.2462961 9.03572558,20 14,20 C18.9642744,20 23.5,16.2462961 23.5,14 C23.5,11.7537039 18.9642744,8 14,8 Z M14,10 C16.209139,10 18,11.790861 18,14 C18,16.209139 16.209139,18 14,18 C11.790861,18 10,16.209139 10,14 C10,11.790861 11.790861,10 14,10 Z M14,12 C12.8954305,12 12,12.8954305 12,14 C12,15.1045695 12.8954305,16 14,16 C15.1045695,16 16,15.1045695 16,14 C16,12.8954305 15.1045695,12 14,12 Z" id="↳-Icon-Color" fill="currentColor" fill-rule="nonzero"></path>
        </g>
    </g>
</svg>
